X: 31
T: Praeludia organi op. 5 – Lento
C: Franciszek Walczyński
%%abc-version 2.0
%%abcx-abcm2ps-target-version 5.9.1 (29 Sep 2008)
%%abc-creator hum2abc beta
%%abcx-conversion-date 2021/10/04 07:38:40
%%abc-edited-by Andrzej Borzym
%%abc-edited-by Katarzyna Serwa
%%abcx-initial-encoding-date 2021-07-26
%%humdrum-veritas 3344196068
%%humdrum-veritas-data 434393432
%%linebreak <none>
%%barnumbers 0
L: 1/4
M: C
N: Derived from pl-kozmzk--mzk-m-159--020_walczynski-franciszek--praeludia-organi-op-5-lento.krn
Q: "Lento."
%%staves {1 2}
V: 1 clef=treble
V: 2 clef=bass
K: D
[V:1] B,2C^D | 
[V:2] [F,2D,2][G,E,][A,F,] & B,,4- | 
[V:1] E2=D2 | 
[V:2] [B,2G,2][B,2F,2] & B,,4 | 
[V:1] C2!accent!D3/C/ & B,2B,2 | 
[V:2] G,2^G,2 & E,,2^E,,2 | 
[V:1] !fermata!C4 & ^A,4 ||  
[V:2] F,4 & !fermata!F,,4 ||  
[V:1] BdcF | 
[V:2] z4 | 
[V:1] BA/G/.F.E | 
[V:2] B,DCF, | 
[V:1] DCD^A, | 
[V:2] B,A,/G,/.F,.E, | 
[V:1] B,CD^E | 
[V:2] D,^A,,B,,^G,, | 
[V:1] F2^E=E | 
[V:2] F,,F,^G,,^A,, | 
[V:1] D^AB=A | 
[V:2] B,,C,D,^D, | 
[V:1] G2F^E | 
[V:2] E,B,F,^G, | 
[V:1] =EG.F.E | 
[V:2] ^A,2F,^G,/A,/ | 
[V:1] D^DE=D | 
[V:2] B,=A,=G,F, | 
[V:1] ^C2^A,2 | 
[V:2] E,G,.F,.E, | 
[V:1] B,=A,.G,.^G, | 
[V:2] ^D,2E,=D, | 
[V:1] A,=G,.F,.^A, | 
[V:2] C,2D,C, | 
[V:1] B,EDC | 
[V:2] B,,G,F,F,, | 
[V:1] !fermata!B,4 | 
[V:2] !fermata!B,,4 | 
[V:1] G4 & E4- | 
[V:2] B,4- & E,,2G,,2 | 
[V:1] !fermata!F4 & E^D/C/D2 |]  
[V:2] B,4 & !fermata!B,,4 |]  


